!!!COM: Buxtehude, Dietrich
!!!CDT: ~1637///-1707/05/09/
!!!ODT: ~1694///
!!!OTL: Sonata in A Minor, Op. 1, No. 3
!!!OPS: Op. 1
!!!ONM: No. 3
!!!SCA: BuxWV 254
!!!OMD: 3. Lento
!!!URL: http://www.lysator.liu.se/~tuben/scores
!!!ONB: Johan Tufvessons, ed.
**kern	**kern	**kern
*staff3	*staff2	*staff1
*clefF4	*clefC3	*clefG2
*k[]	*k[]	*k[]
*met(C)	*met(C)	*met(C)
*M4/4	*M4/4	*M4/4
*MM60	*MM60	*MM60
=65-	=65-	=65-
2FF/	2r	8r
.	.	8a/L
.	.	8cc/
.	.	8a/J
8r	8r	4dd\
8F\L	8a\L	.
8E\	8g\	8ee\L
8D\J	8f\J	8ff\J
=66	=66	=66
8E\L	8g\L	4.cc\
8C\J	8e\	.
[4F\	8a\	.
.	8b-\J	8dd\
4F\]	8g\L	(8b-\L
.	8f\J	8a\)
4E\	[4g\	(8b-\
.	.	8cc\J)
=67	=67	=67
[2F\	8g\L]	2.a/
.	8g\	.
.	8f\	.
.	8e\J	.
8F\L]	[2f\	.
8E\J	.	.
8D/L	.	4a/
8C/J	.	.
=68	=68	=68
[2BB-/	8f\L]	(8dd\L
.	8a\	8cc\
.	8g\	8b-\
.	8f\J	8a\J)
4BB-/]	8e\L	8g/L
.	8c\J	8e/J
8r	[4f\	8r
8AA/	.	8cc\
=69	=69	=69
8BB-/L	4f\]	4.g/
8GG/J	.	.
8C/L	4e\	.
8CC/J	.	16a/LL
.	.	16b-/JJ
8FF\L	2f\	4a/
8F\	.	.
8A\	.	8r
8F\J	.	8aa\
=70	=70	=70
2c\	8r	4gg\
.	8e\L	.
.	8g\	4r
.	8e\J	.
8r	4a\	8r
8c\L	.	8ee\L
8B\	8b\L	8dd\
8A\J	8cc\J	8cc\J
=71	=71	=71
8B\L	4.g\	8dd\L
8G\J	.	8b\
[4c\	.	8ee\
.	8a\	8ff\J
4c\]	8f\L	8dd\L
.	8e\	8cc\J
4B\	8f\	[4dd\
.	8g\J	.
=72	=72	=72
[2c\	2.e\	8dd\L]
.	.	8ee\
.	.	8cc\
.	.	8b\J
8c\L]	.	[2cc\
8B-\J	.	.
8A\L	4e\	.
8G\J	.	.
=73	=73	=73
2F\	(8a\L	8cc\L]
.	8g\)	8ee\
.	(8f\	8dd\
.	8e\J)	8cc\J
4F\	8d\L	8b/L
.	8B\J	8g/J
8r	8r	[4cc\
8E\	8g\	.
=74	=74	=74
8F\L	4.d\	4cc\]
8D\J	.	.
8G/L	.	4b\
8GG/J	16e\LL	.
.	16f\JJ	.
8r	8e/L	2cc\
8C/L	8E/	.
8E/	8G/	.
8C/J	8E/J	.
=75	=75	=75
2F\	2A/	8r
.	.	8a/L
.	.	8cc/
.	.	8a/J
8r	8r	4dd\
8F\L	8a\L	.
8E\	8g\	8ee\L
8D\J	8f\J	8ff\J
=76	=76	=76
8E\L	8g\L	4.cc\
8C\J	8e\	.
[4F\	8a\	.
.	8b-\J	8dd\
4F\]	8g\L	(8b-\L
.	8f\J	8a\)
4E\	[4g\	(8b-\
.	.	8cc\J)
=77	=77	=77
4F\	8g\L]	2.a/
.	8g\	.
4D\	8f\	.
.	8e\J	.
8d\L	4.f\	.
8c\J	.	.
8B-\L	.	[4dd\
8A\J	8f\	.
=78	=78	=78
4G\	4e\	4dd\]
4A\	4d#\	2cc\
8B-\L	4.dn\	.
8A\	.	.
8G\	.	[4b-\
8F\J	8d\	.
=79	=79	=79
4E\	4c#\	4b-\]
4F#\	4cn\	2a/
4G\	4B/	.
4C#/	4B-/	[4g/
=80	=80	=80
[2D\	4A/	4g/]
.	4d\	8f\L
.	.	8ff\J
4D\]	4G#/	(8ee\L
.	.	8dd\J)
4D#\	4A/	[4cc\
=81	=81	=81
1E	8A/L	8cc\L]
.	8G#/	8b\
.	8A/	8cc\
.	8B/J	8dd\J
.	8c/L	8ee\L
.	8B/	8dd\
.	8.A/	8.cc\
.	16G#/Jk	16b\Jk
==	==	==
*-	*-	*-
!!!ENC: Craig Stuart Sapp
!!!END: 2004/12/15/
